X: 107
T:George's Corkscrew
% Nottingham Music Database
S:Chris Dewhurst 1982, via Phil Rowe
M:6/8
K:C
(3G/2A/2B/2|"C"c2G e2G|"C/dim"AG^F "C"G3|"G""d"F2G "C""e"E2G|"F"Ddc "G"BAG|
"C"c2G e2G|"C/dim"AG^F "C"G3|"G"f2d Bcd|[1"C"c3 -c2:|[2"C"c3-c3
|:"C"e2c "C/dim"_e2c|"C"egf edc|"G"B2G d2G|"G"fGA Bcd|
"C"e2c "C/dim"_e2c|"C"egf edc|"G"BAG fed|"C"c3 -c3:|<end>
<start>
